X:167
T:Il Gattopardo (Le gu?pard)
T:Valse romantique
C:Maurice Mar?chal (1992)
O:France
A:Provence
R:Valse
Z:Transcrit et/ou corrig? par Michel BELLON - 2005-07-26
Z:Pour toute observation mailto:galouvielle@free.fr
M:3/8
Q:"Quasi lento"
L:1/8
K:Bb
V:1
A Bruno Guis, digne fils de son p?re, cette valse qui n'est h?las ... qu'? trois temps.
(d>ed | A2A | c>dc | G2G) | (g2f | e2d | c>de | d3) |
(g2a | b>ag | fgf | d2d) | (=e2^f | g>ag | ^f=ef | g3) :|
L:1/16
Q:"Pi? mosso"
(de)dcBA | (G^F)GABc | dg^fgeg | d4d2 | (de)dcBA | (G^F)GABc | dgeg^fg | d6 |
(de)dcBA | (G^F)GABc | dg^fgeg | d4d2 | (de)dcBA | (G^F)GABc | dgeg^fg | d6 |
(ed)c=Bcd | (ed)c4 | (cB)ABcd | B4G2 | (ed)c=Bcd | (ed)c4 | {cd}(cB)ABcd | G6 O ||
Q:"Tempo 1?"
L:1/8
(d>ed | A2A | c>dc | G2G) | (g2f | e2d | c>de | d3) |
(g2a | b>ag | fgf | d2d) | (=e2^f | g>ag | ^f=ef | g3) |:
L:1/16
Q:"Stringendo"
{^c}.d2.d2.d2 | {^c}.d2.d2.d2 | {de}(d^c)ded=c | (BA)G^FGB | {=B}.c2.c2.c2 | {=B}.c2.c2.c2 | {cd}(c=B)cdc_B | (AG)^FGBc |
{^c}.d2.d2.d2 | {^c}.d2.d2.d2 | g_agfed | (c=B)cdec | LdBGg^fg | LdBG^FGB |1 (A^G)AcBA | G6 :|2
(AB)c^cd^f | g6 !D.C.! O || \
L:1/8
(de>d | A2A | cd>c | G2G) | 
(g2f | e2d | cd>e | d3) | (g2a | bag | fg>f | d2d) |
(=e2^f | gag |^f=e>f | g3-) | g(=e^f | g3-) | g(=e^f | g3-) | g3- | gz2 |]
V:2
(B>cB | ^F2F | A>BA | G2G) | (B2d | c2B | A>Bc | B3) |
(B2c | d>cB | ABA | F2F) | (G2A | B>cB | AGA | B3) :|
L:1/16
(Bc)BAG^F | .G2 G^FGA | .B2 dBcA | B4B2 | (Bc)BAG^F | .G2 G^FGA | BBcBdB | B6 |
(Bc)BAG^F | .G2 G^FGA | .B2 dBcA | B4B2 | (Bc)BAG^F | .G2 G^FGA | BBcBdB | B6 |
(cB)A^GAB | (LcB)A4 | (AG)^FGAF | G4G2 | (cG)E2EG | (LcG)E4 | {AB}(AG)^FGAF | G6 ||
L:1/8
(B>cB | ^F2F | A>BA | G2G) | (B2d | c2B | A>Bc | B3) |
(B2c | d>cB | ABA | F2F) | (G2A | B>cB | AGA | B3) |:
L:1/16
{A}.B2.B2.B2 | {A}.B2.B2.B2 | {Bc}(BA)BcBA | (G^F).G2.G2 | {^G}.A2.A2.A2 | {^G}.A2.A2.A2 | {AB}(A^G)ABA=G | (^FG).F2GA |
{A}.B2.B2.B2 | {A}.B2.B2.B2 | =BcBAGF | .E2EFGE | LBGGBAB | LBG.G2.G2 | ^F2FAGF | G6 :| 
^FGAABA | B6 !D.C.! O || \ 
L:1/8
(Bc>B | ^F2F | AB>A | G2G) | 
(B2d | c2B | AB>c | B3) | (B2c | dcB | AB>A | F2F) |
(G2A | BcB |AG>A | B3-) | B(GA | B3-) | B(GA | B3-) | B3- | Bz2 |]
<end>
<start>
